svgs/thin/timeline-arrow.svg

<svg xmlns="http://www.w3.org/2000/svg" viewBox="0 0 640 512"><!-- Font Awesome Pro 6.0.0-alpha2 by @fontawesome - https://fontawesome.com License - https://fontawesome.com/license (Commercial License) --><path d="M636.656 249.484L524.656 169.484C521.094 166.922 516.062 167.766 513.5 171.344C510.938 174.938 511.75 179.938 515.344 182.516L607.047 248H360V127.193C391.525 123.217 416 96.605 416 64C416 28.654 387.346 0 352 0S288 28.654 288 64C288 96.605 312.475 123.217 344 127.193V248H136V127.193C167.525 123.217 192 96.605 192 64C192 28.654 163.346 0 128 0S64 28.654 64 64C64 96.605 88.475 123.217 120 127.193V248H8C3.594 248 0 251.578 0 256S3.594 264 8 264H216V384.807C184.475 388.783 160 415.395 160 448C160 483.346 188.654 512 224 512S288 483.346 288 448C288 415.395 263.525 388.783 232 384.807V264H607.047L515.344 329.484C511.75 332.062 510.937 337.062 513.5 340.656C515.062 342.828 517.5 344 520 344C521.625 344 523.25 343.516 524.656 342.516L636.656 262.516C638.75 261.016 640 258.578 640 256S638.75 250.984 636.656 249.484ZM304 64C304 37.533 325.533 16 352 16S400 37.533 400 64S378.467 112 352 112S304 90.467 304 64ZM80 64C80 37.533 101.533 16 128 16S176 37.533 176 64S154.467 112 128 112S80 90.467 80 64ZM272 448C272 474.467 250.467 496 224 496S176 474.467 176 448S197.533 400 224 400S272 421.533 272 448Z"/></svg>

<svg xmlns="http://www.w3.org/2000/svg" viewBox="0 0 640 512"><!--! Font Awesome Pro 6.0.0-alpha3 by @fontawesome - https://fontawesome.com License - https://fontawesome.com/license (Commercial License) --><path d="M636.7 249.5l-112-80c-3.562-2.562-8.594-1.719-11.16 1.859c-2.562 3.594-1.75 8.594 1.844 11.17L607 248H360V127.2C391.5 123.2 416 96.61 416 64c0-35.35-28.65-64-64-64S288 28.65 288 64c0 32.61 24.47 59.22 56 63.19V248h-208V127.2C167.5 123.2 192 96.61 192 64c0-35.35-28.65-64-64-64S64 28.65 64 64c0 32.61 24.47 59.22 56 63.19V248h-112C3.594 248 0 251.6 0 256s3.594 8 8 8h208v120.8C184.5 388.8 160 415.4 160 448c0 35.35 28.65 64 64 64s64-28.65 64-64c0-32.61-24.47-59.22-56-63.19V264h375l-91.7 65.48c-3.594 2.578-4.406 7.578-1.844 11.17C515.1 342.8 517.5 344 520 344c1.625 0 3.25-.4844 4.656-1.484l112-80C638.8 261 640 258.6 640 256S638.8 250.1 636.7 249.5zM304 64c0-26.47 21.53-48 48-48s48 21.53 48 48S378.5 112 352 112S304 90.47 304 64zM80 64c0-26.47 21.53-48 48-48S176 37.53 176 64S154.5 112 128 112S80 90.47 80 64zM272 448c0 26.47-21.53 48-48 48S176 474.5 176 448s21.53-48 48-48S272 421.5 272 448z"/></svg>
